!!!COM: Pango, Pierre Michel (et al)
!!!CDT: b.1926
!!!OTL: National Anthem, Ivory Coast - L'Abidjanaise (Song of Abidjan)
!!!ENC: Davis, Matthew J.
!!Vocal Line Only
**kern
*clefG2
*k[f#]
*G:
*M4/4
=1-
4g
8.b
16a
8.g
16a
8.b
16cc
=2
2dd
4dd
4r
=3
4b
8.dd
16cc
8.b
16a
8.b
16cc
=4
[2a
4a]
4r
=5
4a
8.cc
16b
8.a
16g
8.f#
16g
=6
2a
4a
6f#
6g
6a
=7
4g
4f#
4e
4a
=8
!First Ending
[2d
4d]
4r
!(Repeat from begining to second ending
==:|!9
!Second Ending
[2d
4d]
6d
6e
6f#
=10
4g
8.b
16a
4g
8.dd
16cc
=11
4.a
16cc
16b
4a
6e
6f#
6g#
=12
4a
8.cc
16b
4a
8.ee
16cc
=13
8.b
16a
8.b
16cc
4b
6g
6f#
6g
=14
4ee
4dd
16eeq
16ddq
4cc
4b
=15
8.a
16g#
8.a
16b
4cc
6cc
6b
6a
=16
4dd
4cc
16ddq
16ccq
4b
4a
=17
8.g
16a
8.b
16cc
4dd
6g
6f#
6g
=18
4ee
4dd
16eeq
16ddq
4cc
4b-
8.a
16g#
8.a
16b
4cc
6cc
6b
6a
=20
8.dd
16b
8.g
16cc
4b
4a
=21
2.g
==|!
*-
